craft2/public/assets/svgicons/branches/coins-01.svg

<svg xmlns="http://www.w3.org/2000/svg" width="43.199" height="40.067" viewBox="0 0 43.199 40.067"><g stroke="#3B3735" stroke-width="2" stroke-linecap="round" stroke-linejoin="round" stroke-miterlimit="10" fill="none"><path d="M26.372 19.959h-20.049c-.552 0-1-.448-1-1v-4.32c0-.552.448-1 1-1h20.049c.552 0 1 .448 1 1v4.32c0 .552-.447 1-1 1z"/><path d="M22.049 13.639h-20.049c-.552 0-1-.448-1-1v-4.319c0-.552.448-1 1-1h20.049c.552 0 1 .448 1 1v4.32c0 .552-.448.999-1 .999z"/><path d="M26.372 7.32h-20.049c-.552 0-1-.448-1-1v-4.32c0-.552.448-1 1-1h20.049c.552 0 1 .448 1 1v4.32c0 .552-.447 1-1 1z"/><path d="M36.353 38.479l-8.268-18.265c-.228-.503-.005-1.096.499-1.323l3.935-1.781c.503-.228 1.096-.005 1.323.499l8.268 18.265c.228.503.005 1.096-.499 1.323l-3.935 1.781c-.503.227-1.095.004-1.323-.499z"/><path d="M24.263 38.918h-20.049c-.552 0-1-.448-1-1v-4.32c0-.552.448-1 1-1h20.049c.552 0 1 .448 1 1v4.32c0 .553-.448 1-1 1z"/><path d="M24.263 32.599h-20.049c-.552 0-1-.448-1-1v-4.32c0-.552.448-1 1-1h20.049c.552 0 1 .448 1 1v4.32c0 .552-.448 1-1 1z"/><path d="M26.372 26.279h-20.049c-.552 0-1-.448-1-1v-4.32c0-.552.448-1 1-1h20.049c.552 0 1 .448 1 1v4.32c0 .552-.447 1-1 1z"/></g></svg>

<?xml version="1.0" encoding="utf-8"?>
<!-- Generator: Adobe Illustrator 17.0.0, SVG Export Plug-In . SVG Version: 6.00 Build 0)  -->
<!DOCTYPE svg PUBLIC "-//W3C//DTD SVG 1.1//EN" "http://www.w3.org/Graphics/SVG/1.1/DTD/svg11.dtd">
<svg version="1.1" id="Layer_1" xmlns="http://www.w3.org/2000/svg" xmlns:xlink="http://www.w3.org/1999/xlink" x="0px" y="0px"
	 width="43.199px" height="40.067px" viewBox="0 0 43.199 40.067" enable-background="new 0 0 43.199 40.067" xml:space="preserve">
<g>
	<path fill="none" stroke="#3B3735" stroke-width="2" stroke-linecap="round" stroke-linejoin="round" stroke-miterlimit="10" d="
		M26.372,19.959H6.323c-0.552,0-1-0.448-1-1v-4.32c0-0.552,0.448-1,1-1h20.049c0.552,0,1,0.448,1,1v4.32
		C27.372,19.511,26.925,19.959,26.372,19.959z"/>
	<path fill="none" stroke="#3B3735" stroke-width="2" stroke-linecap="round" stroke-linejoin="round" stroke-miterlimit="10" d="
		M22.049,13.639H2c-0.552,0-1-0.448-1-1V8.32c0-0.552,0.448-1,1-1h20.049c0.552,0,1,0.448,1,1v4.32
		C23.049,13.192,22.601,13.639,22.049,13.639z"/>
	<path fill="none" stroke="#3B3735" stroke-width="2" stroke-linecap="round" stroke-linejoin="round" stroke-miterlimit="10" d="
		M26.372,7.32H6.323c-0.552,0-1-0.448-1-1V2c0-0.552,0.448-1,1-1h20.049c0.552,0,1,0.448,1,1v4.32
		C27.372,6.872,26.925,7.32,26.372,7.32z"/>
	<path fill="none" stroke="#3B3735" stroke-width="2" stroke-linecap="round" stroke-linejoin="round" stroke-miterlimit="10" d="
		M36.353,38.479l-8.268-18.265c-0.228-0.503-0.005-1.096,0.499-1.323l3.935-1.781c0.503-0.228,1.096-0.005,1.323,0.499l8.268,18.265
		c0.228,0.503,0.005,1.096-0.499,1.323l-3.935,1.781C37.173,39.205,36.581,38.982,36.353,38.479z"/>
	<path fill="none" stroke="#3B3735" stroke-width="2" stroke-linecap="round" stroke-linejoin="round" stroke-miterlimit="10" d="
		M24.263,38.918H4.214c-0.552,0-1-0.448-1-1v-4.32c0-0.552,0.448-1,1-1h20.049c0.552,0,1,0.448,1,1v4.32
		C25.263,38.471,24.815,38.918,24.263,38.918z"/>
	<path fill="none" stroke="#3B3735" stroke-width="2" stroke-linecap="round" stroke-linejoin="round" stroke-miterlimit="10" d="
		M24.263,32.599H4.214c-0.552,0-1-0.448-1-1v-4.32c0-0.552,0.448-1,1-1h20.049c0.552,0,1,0.448,1,1v4.32
		C25.263,32.151,24.815,32.599,24.263,32.599z"/>
	<path fill="none" stroke="#3B3735" stroke-width="2" stroke-linecap="round" stroke-linejoin="round" stroke-miterlimit="10" d="
		M26.372,26.279H6.323c-0.552,0-1-0.448-1-1v-4.32c0-0.552,0.448-1,1-1h20.049c0.552,0,1,0.448,1,1v4.32
		C27.372,25.831,26.925,26.279,26.372,26.279z"/>
</g>
</svg>
